X:39
T:St Sebastian. RHu.039
S:R.Hughes MS,1823,Whitchurch,Shrops.
A:Whitchurch, Shropshire
Z:Neil Brookes 2006
M:6/8
L:1/8
Q:3/8=120
R:Jig
K:G
D|G2B BAG|B2d dcB|c2d e2f|g2fg2D|!
G2B BAG|B2d dcB|c2d e2f|g2GG2::!
d|g2g bag|faf d2d|e2f gfe|dfd B2B|!
c2c edc|BdB G2G|AcA FAF|G2-“dmin in MS”G3:|

